hdri/3.3DL
#Created by: Adobe Photoshop Export Color Lookup Plugin
#Description: 2.png
0 68 136 205 273 341 409 477 546 614 682 750 818 887 955 1023
0 0 0
0 0 18
0 0 73
0 0 164
0 0 291
0 0 455
0 0 655
0 0 892
0 0 1165
0 0 1474
0 0 1820
0 0 2202
0 0 2621
0 0 3076
0 0 3567
0 0 4095
0 938 0
0 938 18
0 938 73
0 938 164
0 938 291
0 938 455
0 938 655
0 938 892
0 938 1165
0 938 1474
0 938 1820
0 938 2202
0 938 2621
0 938 3076
0 938 3567
0 938 4095
0 1495 0
0 1495 18
0 1495 73
0 1495 164
0 1495 291
0 1495 455
0 1495 655
0 1495 892
0 1495 1165
0 1495 1474
0 1495 1820
0 1495 2202
0 1495 2621
0 1495 3076
0 1495 3567
0 1495 4095
0 1831 0
0 1831 18
0 1831 73
0 1831 164
0 1831 291
0 1831 455
0 1831 655
0 1831 892
0 1831 1165
0 1831 1474
0 1831 1820
0 1831 2202
0 1831 2621
0 1831 3076
0 1831 3567
0 1831 4095
0 2115 0
0 2115 18
0 2115 73
0 2115 164
0 2115 291
0 2115 455
0 2115 655
0 2115 892
0 2115 1165
0 2115 1474
0 2115 1820
0 2115 2202
0 2115 2621
0 2115 3076
0 2115 3567
0 2115 4095
0 2364 0
0 2364 18
0 2364 73
0 2364 164
0 2364 291
0 2364 455
0 2364 655
0 2364 892
0 2364 1165
0 2364 1474
0 2364 1820
0 2364 2202
0 2364 2621
0 2364 3076
0 2364 3567
0 2364 4095
0 2590 0
0 2590 18
0 2590 73
0 2590 164
0 2590 291
0 2590 455
0 2590 655
0 2590 892
0 2590 1165
0 2590 1474
0 2590 1820
0 2590 2202
0 2590 2621
0 2590 3076
0 2590 3567
0 2590 4095
0 2797 0
0 2797 18
0 2797 73
0 2797 164
0 2797 291
0 2797 455
0 2797 655
0 2797 892
0 2797 1165
0 2797 1474
0 2797 1820
0 2797 2202
0 2797 2621
0 2797 3076
0 2797 3567
0 2797 4095
0 2991 0
0 2991 18
0 2991 73
0 2991 164
0 2991 291
0 2991 455
0 2991 655
0 2991 892
0 2991 1165
0 2991 1474
0 2991 1820
0 2991 2202
0 2991 2621
0 2991 3076
0 2991 3567
0 2991 4095
0 3172 0
0 3172 18
0 3172 73
0 3172 164
0 3172 291
0 3172 455
0 3172 655
0 3172 892
0 3172 1165
0 3172 1474
0 3172 1820
0 3172 2202
0 3172 2621
0 3172 3076
0 3172 3567
0 3172 4095
0 3344 0
0 3344 18
0 3344 73
0 3344 164
0 3344 291
0 3344 455
0 3344 655
0 3344 892
0 3344 1165
0 3344 1474
0 3344 1820
0 3344 2202
0 3344 2621
0 3344 3076
0 3344 3567
0 3344 4095
0 3507 0
0 3507 18
0 3507 73
0 3507 164
0 3507 291
0 3507 455
0 3507 655
0 3507 892
0 3507 1165
0 3507 1474
0 3507 1820
0 3507 2202
0 3507 2621
0 3507 3076
0 3507 3567
0 3507 4095
0 3663 0
0 3663 18
0 3663 73
0 3663 164
0 3663 291
0 3663 455
0 3663 655
0 3663 892
0 3663 1165
0 3663 1474
0 3663 1820
0 3663 2202
0 3663 2621
0 3663 3076
0 3663 3567
0 3663 4095
0 3812 0
0 3812 18
0 3812 73
0 3812 164
0 3812 291
0 3812 455
0 3812 655
0 3812 892
0 3812 1165
0 3812 1474
0 3812 1820
0 3812 2202
0 3812 2621
0 3812 3076
0 3812 3567
0 3812 4095
0 3956 0
0 3956 18
0 3956 73
0 3956 164
0 3956 291
0 3956 455
0 3956 655
0 3956 892
0 3956 1165
0 3956 1474
0 3956 1820
0 3956 2202
0 3956 2621
0 3956 3076
0 3956 3567
0 3956 4095
0 4095 0
0 4095 18
0 4095 73
0 4095 164
0 4095 291
0 4095 455
0 4095 655
0 4095 892
0 4095 1165
0 4095 1474
0 4095 1820
0 4095 2202
0 4095 2621
0 4095 3076
0 4095 3567
0 4095 4095
701 0 0
701 0 18
701 0 73
701 0 164
701 0 291
701 0 455
701 0 655
701 0 892
701 0 1165
701 0 1474
701 0 1820
701 0 2202
701 0 2621
701 0 3076
701 0 3567
701 0 4095
701 938 0
701 938 18
701 938 73
701 938 164
701 938 291
701 938 455
701 938 655
701 938 892
701 938 1165
701 938 1474
701 938 1820
701 938 2202
701 938 2621
701 938 3076
701 938 3567
701 938 4095
701 1495 0
701 1495 18
701 1495 73
701 1495 164
701 1495 291
701 1495 455
701 1495 655
701 1495 892
701 1495 1165
701 1495 1474
701 1495 1820
701 1495 2202
701 1495 2621
701 1495 3076
701 1495 3567
701 1495 4095
701 1831 0
701 1831 18
701 1831 73
701 1831 164
701 1831 291
701 1831 455
701 1831 655
701 1831 892
701 1831 1165
701 1831 1474
701 1831 1820
701 1831 2202
701 1831 2621
701 1831 3076
701 1831 3567
701 1831 4095
701 2115 0
701 2115 18
701 2115 73
701 2115 164
701 2115 291
701 2115 455
701 2115 655
701 2115 892
701 2115 1165
701 2115 1474
701 2115 1820
701 2115 2202
701 2115 2621
701 2115 3076
701 2115 3567
701 2115 4095
701 2364 0
701 2364 18
701 2364 73
701 2364 164
701 2364 291
701 2364 455
701 2364 655
701 2364 892
701 2364 1165
701 2364 1474
701 2364 1820
701 2364 2202
701 2364 2621
701 2364 3076
701 2364 3567
701 2364 4095
701 2590 0
701 2590 18
701 2590 73
701 2590 164
701 2590 291
701 2590 455
701 2590 655
701 2590 892
701 2590 1165
701 2590 1474
701 2590 1820
701 2590 2202
701 2590 2621
701 2590 3076
701 2590 3567
701 2590 4095
701 2797 0
701 2797 18
701 2797 73
701 2797 164
701 2797 291
701 2797 455
701 2797 655
701 2797 892
701 2797 1165
701 2797 1474
701 2797 1820
701 2797 2202
701 2797 2621
701 2797 3076
701 2797 3567
701 2797 4095
701 2991 0
701 2991 18
701 2991 73
701 2991 164
701 2991 291
701 2991 455
701 2991 655
701 2991 892
701 2991 1165
701 2991 1474
701 2991 1820
701 2991 2202
701 2991 2621
701 2991 3076
701 2991 3567
701 2991 4095
701 3172 0
701 3172 18
701 3172 73
701 3172 164
701 3172 291
701 3172 455
701 3172 655
701 3172 892
701 3172 1165
701 3172 1474
701 3172 1820
701 3172 2202
701 3172 2621
701 3172 3076
701 3172 3567
701 3172 4095
701 3344 0
701 3344 18
701 3344 73
701 3344 164
701 3344 291
701 3344 455
701 3344 655
701 3344 892
701 3344 1165
701 3344 1474
701 3344 1820
701 3344 2202
701 3344 2621
701 3344 3076
701 3344 3567
701 3344 4095
701 3507 0
701 3507 18
701 3507 73
701 3507 164
701 3507 291
701 3507 455
701 3507 655
701 3507 892
701 3507 1165
701 3507 1474
701 3507 1820
701 3507 2202
701 3507 2621
701 3507 3076
701 3507 3567
701 3507 4095
701 3663 0
701 3663 18
701 3663 73
701 3663 164
701 3663 291
701 3663 455
701 3663 655
701 3663 892
701 3663 1165
701 3663 1474
701 3663 1820
701 3663 2202
701 3663 2621
701 3663 3076
701 3663 3567
701 3663 4095
701 3812 0
701 3812 18
701 3812 73
701 3812 164
701 3812 291
701 3812 455
701 3812 655
701 3812 892
701 3812 1165
701 3812 1474
701 3812 1820
701 3812 2202
701 3812 2621
701 3812 3076
701 3812 3567
701 3812 4095
701 3956 0
701 3956 18
701 3956 73
701 3956 164
701 3956 291
701 3956 455
701 3956 655
701 3956 892
701 3956 1165
701 3956 1474
701 3956 1820
701 3956 2202
701 3956 2621
701 3956 3076
701 3956 3567
701 3956 4095
701 4095 0
701 4095 18
701 4095 73
701 4095 164
701 4095 291
701 4095 455
701 4095 655
701 4095 892
701 4095 1165
701 4095 1474
701 4095 1820
701 4095 2202
701 4095 2621
701 4095 3076
701 4095 3567
701 4095 4095
1135 0 0
1135 0 18
1135 0 73
1135 0 164
1135 0 291
1135 0 455
1135 0 655
1135 0 892
1135 0 1165
1135 0 1474
1135 0 1820
1135 0 2202
1135 0 2621
1135 0 3076
1135 0 3567
1135 0 4095
1135 938 0
1135 938 18
1135 938 73
1135 938 164
1135 938 291
1135 938 455
1135 938 655
1135 938 892
1135 938 1165
1135 938 1474
1135 938 1820
1135 938 2202
1135 938 2621
1135 938 3076
1135 938 3567
1135 938 4095
1135 1495 0
1135 1495 18
1135 1495 73
1135 1495 164
1135 1495 291
1135 1495 455
1135 1495 655
1135 1495 892
1135 1495 1165
1135 1495 1474
1135 1495 1820
1135 1495 2202
1135 1495 2621
1135 1495 3076
1135 1495 3567
1135 1495 4095
1135 1831 0
1135 1831 18
1135 1831 73
1135 1831 164
1135 1831 291
1135 1831 455
1135 1831 655
1135 1831 892
1135 1831 1165
1135 1831 1474
1135 1831 1820
1135 1831 2202
1135 1831 2621
1135 1831 3076
1135 1831 3567
1135 1831 4095
1135 2115 0
1135 2115 18
1135 2115 73
1135 2115 164
1135 2115 291
1135 2115 455
1135 2115 655
1135 2115 892
1135 2115 1165
1135 2115 1474
1135 2115 1820
1135 2115 2202
1135 2115 2621
1135 2115 3076
1135 2115 3567
1135 2115 4095
1135 2364 0
1135 2364 18
1135 2364 73
1135 2364 164
1135 2364 291
1135 2364 455
1135 2364 655
1135 2364 892
1135 2364 1165
1135 2364 1474
1135 2364 1820
1135 2364 2202
1135 2364 2621
1135 2364 3076
1135 2364 3567
1135 2364 4095
1135 2590 0
1135 2590 18
1135 2590 73
1135 2590 164
1135 2590 291
1135 2590 455
1135 2590 655
1135 2590 892
1135 2590 1165
1135 2590 1474
1135 2590 1820
1135 2590 2202
1135 2590 2621
1135 2590 3076
1135 2590 3567
1135 2590 4095
1135 2797 0
1135 2797 18
1135 2797 73
1135 2797 164
1135 2797 291
1135 2797 455
1135 2797 655
1135 2797 892
1135 2797 1165
1135 2797 1474
1135 2797 1820
1135 2797 2202
1135 2797 2621
1135 2797 3076
1135 2797 3567
1135 2797 4095
1135 2991 0
1135 2991 18
1135 2991 73
1135 2991 164
1135 2991 291
1135 2991 455
1135 2991 655
1135 2991 892
1135 2991 1165
1135 2991 1474
1135 2991 1820
1135 2991 2202
1135 2991 2621
1135 2991 3076
1135 2991 3567
1135 2991 4095
1135 3172 0
1135 3172 18
1135 3172 73
1135 3172 164
1135 3172 291
1135 3172 455
1135 3172 655
1135 3172 892
1135 3172 1165
1135 3172 1474
1135 3172 1820
1135 3172 2202
1135 3172 2621
1135 3172 3076
1135 3172 3567
1135 3172 4095
1135 3344 0
1135 3344 18
1135 3344 73
1135 3344 164
1135 3344 291
1135 3344 455
1135 3344 655
1135 3344 892
1135 3344 1165
1135 3344 1474
1135 3344 1820
1135 3344 2202
1135 3344 2621
1135 3344 3076
1135 3344 3567
1135 3344 4095
1135 3507 0
1135 3507 18
1135 3507 73
1135 3507 164
1135 3507 291
1135 3507 455
1135 3507 655
1135 3507 892
1135 3507 1165
1135 3507 1474
1135 3507 1820
1135 3507 2202
1135 3507 2621
1135 3507 3076
1135 3507 3567
1135 3507 4095
1135 3663 0
1135 3663 18
1135 3663 73
1135 3663 164
1135 3663 291
1135 3663 455
1135 3663 655
1135 3663 892
1135 3663 1165
1135 3663 1474
1135 3663 1820
1135 3663 2202
1135 3663 2621
1135 3663 3076
1135 3663 3567
1135 3663 4095
1135 3812 0
1135 3812 18
1135 3812 73
1135 3812 164
1135 3812 291
1135 3812 455
1135 3812 655
1135 3812 892
1135 3812 1165
1135 3812 1474
1135 3812 1820
1135 3812 2202
1135 3812 2621
1135 3812 3076
1135 3812 3567
1135 3812 4095
1135 3956 0
1135 3956 18
1135 3956 73
1135 3956 164
1135 3956 291
1135 3956 455
1135 3956 655
1135 3956 892
1135 3956 1165
1135 3956 1474
1135 3956 1820
1135 3956 2202
1135 3956 2621
1135 3956 3076
1135 3956 3567
1135 3956 4095
1135 4095 0
1135 4095 18
1135 4095 73
1135 4095 164
1135 4095 291
1135 4095 455
1135 4095 655
1135 4095 892
1135 4095 1165
1135 4095 1474
1135 4095 1820
1135 4095 2202
1135 4095 2621
1135 4095 3076
1135 4095 3567
1135 4095 4095
1469 0 0
1469 0 18
1469 0 73
1469 0 164
1469 0 291
1469 0 455
1469 0 655
1469 0 892
1469 0 1165
1469 0 1474
1469 0 1820
1469 0 2202
1469 0 2621
1469 0 3076
1469 0 3567
1469 0 4095
1469 938 0
1469 938 18
1469 938 73
1469 938 164
1469 938 291
1469 938 455
1469 938 655
1469 938 892
1469 938 1165
1469 938 1474
1469 938 1820
1469 938 2202
1469 938 2621
1469 938 3076
1469 938 3567
1469 938 4095
1469 1495 0
1469 1495 18
1469 1495 73
1469 1495 164
1469 1495 291
1469 1495 455
1469 1495 655
1469 1495 892
1469 1495 1165
1469 1495 1474
1469 1495 1820
1469 1495 2202
1469 1495 2621
1469 1495 3076
1469 1495 3567
1469 1495 4095
1469 1831 0
1469 1831 18
1469 1831 73
1469 1831 164
1469 1831 291
1469 1831 455
1469 1831 655
1469 1831 892
1469 1831 1165
1469 1831 1474
1469 1831 1820
1469 1831 2202
1469 1831 2621
1469 1831 3076
1469 1831 3567
1469 1831 4095
1469 2115 0
1469 2115 18
1469 2115 73
1469 2115 164
1469 2115 291
1469 2115 455
1469 2115 655
1469 2115 892
1469 2115 1165
1469 2115 1474
1469 2115 1820
1469 2115 2202
1469 2115 2621
1469 2115 3076
1469 2115 3567
1469 2115 4095
1469 2364 0
1469 2364 18
1469 2364 73
1469 2364 164
1469 2364 291
1469 2364 455
1469 2364 655
1469 2364 892
1469 2364 1165
1469 2364 1474
1469 2364 1820
1469 2364 2202
1469 2364 2621
1469 2364 3076
1469 2364 3567
1469 2364 4095
1469 2590 0
1469 2590 18
1469 2590 73
1469 2590 164
1469 2590 291
1469 2590 455
1469 2590 655
1469 2590 892
1469 2590 1165
1469 2590 1474
1469 2590 1820
1469 2590 2202
1469 2590 2621
1469 2590 3076
1469 2590 3567
1469 2590 4095
1469 2797 0
1469 2797 18
1469 2797 73
1469 2797 164
1469 2797 291
1469 2797 455
1469 2797 655
1469 2797 892
1469 2797 1165
1469 2797 1474
1469 2797 1820
1469 2797 2202
1469 2797 2621
1469 2797 3076
1469 2797 3567
1469 2797 4095
1469 2991 0
1469 2991 18
1469 2991 73
1469 2991 164
