hdri/3.3DL
#Created by: Adobe Photoshop Export Color Lookup Plugin
#Description: 2.png
0 205 409 614 818 1023
0 0 0
0 0 164
0 0 655
0 0 1474
0 0 2621
0 0 4095
0 1831 0
0 1831 164
0 1831 655
0 1831 1474
0 1831 2621
0 1831 4095
0 2590 0
0 2590 164
0 2590 655
0 2590 1474
0 2590 2621
0 2590 4095
0 3172 0
0 3172 164
0 3172 655
0 3172 1474
0 3172 2621
0 3172 4095
0 3663 0
0 3663 164
0 3663 655
0 3663 1474
0 3663 2621
0 3663 4095
0 4095 0
0 4095 164
0 4095 655
0 4095 1474
0 4095 2621
0 4095 4095
1469 0 0
1469 0 164
1469 0 655
1469 0 1474
1469 0 2621
1469 0 4095
1469 1831 0
1469 1831 164
1469 1831 655
1469 1831 1474
1469 1831 2621
1469 1831 4095
1469 2590 0
1469 2590 164
1469 2590 655
1469 2590 1474
1469 2590 2621
1469 2590 4095
1469 3172 0
1469 3172 164
1469 3172 655
1469 3172 1474
1469 3172 2621
1469 3172 4095
1469 3663 0
1469 3663 164
1469 3663 655
1469 3663 1474
1469 3663 2621
1469 3663 4095
1469 4095 0
1469 4095 164
1469 4095 655
1469 4095 1474
1469 4095 2621
1469 4095 4095
2285 0 0
2285 0 164
2285 0 655
2285 0 1474
2285 0 2621
2285 0 4095
2285 1831 0
2285 1831 164
2285 1831 655
2285 1831 1474
2285 1831 2621
2285 1831 4095
2285 2590 0
2285 2590 164
2285 2590 655
2285 2590 1474
2285 2590 2621
2285 2590 4095
2285 3172 0
2285 3172 164
2285 3172 655
2285 3172 1474
2285 3172 2621
2285 3172 4095
2285 3663 0
2285 3663 164
2285 3663 655
2285 3663 1474
2285 3663 2621
2285 3663 4095
2285 4095 0
2285 4095 164
2285 4095 655
2285 4095 1474
2285 4095 2621
2285 4095 4095
2958 0 0
2958 0 164
2958 0 655
2958 0 1474
2958 0 2621
2958 0 4095
2958 1831 0
2958 1831 164
2958 1831 655
2958 1831 1474
2958 1831 2621
2958 1831 4095
2958 2590 0
2958 2590 164
2958 2590 655
2958 2590 1474
2958 2590 2621
2958 2590 4095
2958 3172 0
2958 3172 164
2958 3172 655
2958 3172 1474
2958 3172 2621
2958 3172 4095
2958 3663 0
2958 3663 164
2958 3663 655
2958 3663 1474
2958 3663 2621
2958 3663 4095
2958 4095 0
2958 4095 164
2958 4095 655
2958 4095 1474
2958 4095 2621
2958 4095 4095
3553 0 0
3553 0 164
3553 0 655
3553 0 1474
3553 0 2621
3553 0 4095
3553 1831 0
3553 1831 164
3553 1831 655
3553 1831 1474
3553 1831 2621
3553 1831 4095
3553 2590 0
3553 2590 164
3553 2590 655
3553 2590 1474
3553 2590 2621
3553 2590 4095
3553 3172 0
3553 3172 164
3553 3172 655
3553 3172 1474
3553 3172 2621
3553 3172 4095
3553 3663 0
3553 3663 164
3553 3663 655
3553 3663 1474
3553 3663 2621
3553 3663 4095
3553 4095 0
3553 4095 164
3553 4095 655
3553 4095 1474
3553 4095 2621
3553 4095 4095
4095 0 0
4095 0 164
4095 0 655
4095 0 1474
4095 0 2621
4095 0 4095
4095 1831 0
4095 1831 164
4095 1831 655
4095 1831 1474
4095 1831 2621
4095 1831 4095
4095 2590 0
4095 2590 164
4095 2590 655
4095 2590 1474
4095 2590 2621
4095 2590 4095
4095 3172 0
4095 3172 164
4095 3172 655
4095 3172 1474
4095 3172 2621
4095 3172 4095
4095 3663 0
4095 3663 164
4095 3663 655
4095 3663 1474
4095 3663 2621
4095 3663 4095
4095 4095 0
4095 4095 164
4095 4095 655
4095 4095 1474
4095 4095 2621
4095 4095 4095
