hdri/carlut.3DL
#Created by: Adobe Photoshop Export Color Lookup Plugin
#Description: lutkawmi.psd
0 68 136 205 273 341 409 477 546 614 682 750 818 887 955 1023
0 0 0
0 17 372
0 39 739
0 61 1032
0 83 1286
0 105 1522
0 127 1750
0 148 1979
0 170 2211
0 191 2441
0 211 2671
0 231 2909
0 252 3158
0 276 3431
0 298 3711
0 298 3711
7 321 47
0 317 397
0 341 763
0 358 1050
0 375 1303
0 394 1538
0 412 1765
0 431 1995
0 449 2226
0 467 2456
0 484 2687
0 501 2924
0 520 3173
0 538 3446
0 559 3727
0 559 3727
37 677 140
22 678 435
18 674 777
7 706 1089
0 714 1344
0 724 1577
0 735 1803
0 748 2032
0 760 2263
0 773 2492
0 786 2723
0 799 2960
0 813 3209
0 828 3482
0 845 3762
0 845 3762
98 979 282
74 980 497
74 980 800
70 976 1078
61 1013 1358
53 1019 1594
46 1026 1825
39 1033 2060
32 1040 2298
25 1046 2533
18 1052 2771
10 1057 3015
2 1064 3271
0 1073 3547
0 1084 3827
0 1084 3827
185 1244 448
151 1245 579
151 1245 837
151 1245 1096
148 1241 1340
139 1283 1607
132 1288 1836
126 1294 2068
118 1300 2304
111 1305 2539
104 1309 2775
97 1315 3019
89 1320 3274
81 1325 3555
72 1331 3844
72 1331 3844
277 1492 595
235 1494 671
235 1494 885
235 1494 1120
235 1494 1355
231 1490 1583
223 1537 1850
216 1543 2079
210 1547 2313
203 1552 2547
195 1556 2782
188 1561 3024
181 1566 3279
172 1570 3559
164 1576 3847
164 1576 3847
373 1735 729
322 1737 765
322 1737 942
322 1737 1153
322 1737 1373
322 1737 1596
319 1733 1819
311 1788 2094
303 1793 2326
297 1797 2557
290 1802 2791
283 1806 3032
275 1811 3286
267 1817 3565
258 1822 3852
258 1822 3852
472 1980 850
412 1982 857
412 1982 1005
412 1982 1192
412 1982 1398
412 1982 1611
412 1982 1831
409 1980 2056
400 2043 2342
393 2048 2571
386 2053 2803
379 2058 3042
372 2063 3295
363 2068 3572
355 2075 3858
355 2075 3858
570 2232 960
516 2234 962
502 2234 1071
502 2234 1237
502 2234 1428
502 2234 1631
502 2234 1843
502 2234 2067
499 2232 2295
490 2305 2588
484 2311 2818
477 2316 3055
469 2322 3306
461 2328 3582
452 2334 3866
452 2334 3866
666 2485 1060
619 2487 1062
590 2488 1137
590 2488 1286
590 2488 1462
590 2488 1655
590 2488 1860
590 2488 2078
590 2488 2305
588 2486 2533
578 2570 2835
572 2575 3070
564 2581 3319
556 2588 3593
548 2595 3876
548 2595 3876
761 2743 1154
720 2744 1156
678 2746 1203
678 2746 1337
678 2746 1500
678 2746 1682
678 2746 1881
678 2746 2094
678 2746 2316
678 2746 2542
677 2745 2771
667 2838 3087
659 2845 3334
651 2852 3607
643 2859 3888
643 2859 3888
857 3010 1246
821 3012 1247
766 3014 1272
766 3014 1393
766 3014 1542
766 3014 1715
766 3014 1906
766 3014 2113
766 3014 2331
766 3014 2553
766 3014 2780
766 3014 3016
755 3118 3353
747 3125 3622
739 3132 3902
739 3132 3902
955 3295 1339
923 3296 1340
858 3299 1344
858 3299 1452
858 3299 1591
858 3299 1753
858 3299 1936
858 3299 2138
858 3299 2350
858 3299 2567
858 3299 2791
858 3299 3025
858 3299 3273
847 3415 3641
838 3422 3919
838 3422 3919
1061 3609 1437
1032 3610 1438
974 3613 1440
956 3613 1519
956 3613 1647
956 3613 1800
956 3613 1975
956 3613 2168
956 3613 2375
956 3613 2588
956 3613 2807
956 3613 3037
956 3613 3282
956 3613 3554
946 3741 3939
946 3741 3939
1168 3935 1536
1143 3936 1537
1090 3938 1538
1055 3939 1590
1055 3939 1708
1055 3939 1852
1055 3939 2018
1055 3939 2205
1055 3939 2405
1055 3939 2612
1055 3939 2827
1055 3939 3053
1055 3939 3294
1055 3939 3562
1055 3939 3842
1055 3939 3842
1168 3935 1536
1143 3936 1537
1090 3938 1538
1055 3939 1590
1055 3939 1708
1055 3939 1852
1055 3939 2018
1055 3939 2205
1055 3939 2405
1055 3939 2612
1055 3939 2827
1055 3939 3053
1055 3939 3294
1055 3939 3562
1055 3939 3842
1055 3939 3842
153 10 47
135 1 398
118 0 762
104 0 1054
91 0 1310
79 0 1548
66 0 1778
53 0 2010
41 0 2244
29 0 2476
16 0 2709
4 0 2948
0 8 3192
0 21 3455
0 34 3724
0 34 3724
159 316 65
153 324 423
141 331 779
132 342 1074
123 353 1334
116 366 1576
109 378 1811
102 391 2048
95 403 2287
88 414 2524
80 425 2762
73 437 3007
65 448 3264
57 460 3546
48 472 3836
48 472 3836
194 677 153
186 678 475
172 674 789
162 695 1087
154 703 1342
147 712 1581
140 722 1815
133 731 2051
126 740 2290
119 748 2526
112 756 2764
104 764 3009
96 773 3266
88 782 3547
79 790 3837
79 790 3837
239 976 293
233 978 548
213 978 812
209 974 1085
201 1003 1355
193 1009 1591
187 1016 1822
180 1023 2057
173 1029 2294
166 1036 2530
158 1041 2767
151 1048 3011
143 1054 3268
135 1060 3549
126 1067 3838
126 1067 3838
300 1241 453
295 1242 638
266 1243 846
266 1243 1102
262 1239 1345
254 1275 1605
247 1281 1833
240 1286 2065
234 1292 2301
226 1297 2536
219 1302 2772
212 1307 3016
204 1312 3272
196 1318 3552
187 1323 3841
187 1323 3841
372 1490 598
368 1491 736
329 1492 892
329 1492 1125
329 1492 1359
326 1489 1586
318 1531 1848
311 1536 2077
304 1541 2311
297 1545 2544
290 1550 2780
283 1555 3022
275 1559 3277
267 1564 3557
259 1570 3845
259 1570 3845
452 1732 731
449 1733 835
401 1735 947
401 1735 1156
401 1735 1376
401 1735 1599
398 1732 1821
389 1782 2092
383 1787 2324
376 1792 2555
369 1796 2789
362 1801 3030
354 1805 3284
346 1811 3563
338 1816 3850
338 1816 3850
538 1978 851
536 1979 932
479 1981 1010
479 1981 1196
479 1981 1400
479 1981 1613
479 1981 1832
476 1978 2058
467 2038 2341
460 2043 2569
454 2048 2801
446 2053 3041
439 2059 3293
431 2064 3571
422 2071 3857
422 2071 3857
627 2230 961
625 2231 1026
559 2233 1075
559 2233 1241
559 2233 1430
559 2233 1633
559 2233 1845
559 2233 2068
557 2231 2297
548 2301 2587
541 2307 2816
534 2312 3054
527 2318 3304
518 2324 3580
510 2330 3865
510 2330 3865
716 2484 1061
714 2484 1114
640 2487 1140
640 2487 1288
640 2487 1464
640 2487 1657
640 2487 1862
640 2487 2080
640 2487 2307
638 2485 2534
629 2566 2834
622 2572 3069
614 2578 3318
606 2584 3592
598 2591 3875
598 2591 3875
804 2741 1155
803 2742 1200
722 2745 1206
722 2745 1340
722 2745 1502
722 2745 1684
722 2745 1882
722 2745 2095
722 2745 2318
722 2745 2544
720 2744 2773
710 2836 3086
703 2842 3333
695 2848 3606
687 2856 3887
687 2856 3887
894 3009 1247
893 3010 1286
819 3013 1288
805 3013 1394
805 3013 1544
805 3013 1717
805 3013 1907
805 3013 2114
805 3013 2332
805 3013 2554
805 3013 2782
805 3013 3017
794 3115 3352
786 3122 3622
777 3129 3901
777 3129 3901
988 3294 1339
987 3294 1373
920 3297 1375
891 3298 1454
891 3298 1592
891 3298 1755
891 3298 1938
891 3298 2139
891 3298 2352
891 3298 2568
891 3298 2792
891 3298 3026
891 3298 3274
880 3413 3641
872 3420 3918
872 3420 3918
1090 3608 1437
1089 3609 1466
1030 3611 1469
985 3613 1521
985 3613 1648
985 3613 1801
985 3613 1976
985 3613 2169
985 3613 2376
985 3613 2588
985 3613 2808
985 3613 3037
985 3613 3283
985 3613 3555
975 3740 3939
975 3740 3939
1194 3934 1536
1193 3934 1562
1141 3936 1564
1081 3939 1592
1081 3939 1709
1081 3939 1853
1081 3939 2020
1081 3939 2207
1081 3939 2406
1081 3939 2613
1081 3939 2828
1081 3939 3053
1081 3939 3295
1081 3939 3563
1081 3939 3843
1081 3939 3843
1194 3934 1536
1193 3934 1562
1141 3936 1564
1081 3939 1592
1081 3939 1709
1081 3939 1853
1081 3939 2020
1081 3939 2207
1081 3939 2406
1081 3939 2613
1081 3939 2828
1081 3939 3053
1081 3939 3295
1081 3939 3563
1081 3939 3843
1081 3939 3843
388 35 112
385 32 460
352 19 780
330 11 1076
310 5 1336
291 0 1578
275 0 1808
260 0 2040
245 0 2273
231 0 2505
217 0 2738
203 0 2977
188 0 3229
173 0 3504
157 0 3787
157 0 3787
394 319 108
383 340 463
359 328 783
338 320 1073
318 313 1330
299 308 1572
280 302 1807
261 297 2043
242 292 2283
224 287 2520
205 281 2759
187 275 3004
166 270 3261
145 263 3544
123 257 3834
123 257 3834
398 661 189
392 666 488
388 677 808
379 684 1086
372 692 1339
365 702 1578
358 711 1811
351 720 2046
344 729 2284
337 737 2521
330 746 2759
323 754 3003
315 762 3260
307 770 3542
298 779 3831
298 779 3831
442 978 322
432 975 558
424 977 843
409 973 1096
401 991 1353
394 997 1587
387 1004 1818
380 1011 2052
373 1017 2290
367 1024 2525
359 1030 2762
352 1036 3006
345 1042 3263
336 1049 3544
328 1055 3833
328 1055 3833
479 1238 468
474 1239 645
467 1241 887
446 1241 1112
442 1237 1352
434 1264 1602
427 1269 1830
421 1275 2061
414 1280 2297
407 1285 2532
400 1291 2768
393 1296 3011
385 1301 3267
377 1307 3548
369 1312 3837
369 1312 3837
531 1486 607
528 1487 741
521 1489 943
490 1490 1134
490 1490 1365
486 1486 1591
479 1521 1845
472 1526 2074
465 1531 2308
458 1535 2541
451 1540 2776
444 1544 3018
437 1549 3273
428 1554 3553
420 1560 3840
420 1560 3840
593 1729 736
590 1730 838
585 1731 1006
543 1733 1164
543 1733 1382
543 1733 1604
540 1729 1825
532 1773 2090
525 1778 2321
518 1783 2552
512 1787 2786
504 1791 3027
497 1796 3281
488 1801 3559
480 1807 3846
480 1807 3846
663 1975 854
660 1976 934
656 1977 1075
604 1979 1203
604 1979 1406
604 1979 1618
604 1979 1837
601 1976 2061
593 2030 2338
586 2035 2567
579 2040 2799
572 2045 3038
565 2050 3290
556 2055 3568
548 2061 3854
548 2061 3854
737 2227 963
735 2228 1027
731 2229 1147
671 2231 1247
671 2231 1435
671 2231 1637
671 2231 1849
671 2231 2072
668 2228 2300
659 2294 2584
652 2299 2814
645 2305 3051
638 2310 3302
629 2316 3578
621 2323 3863
621 2323 3863
813 2481 1062
811 2481 1115
807 2483 1218
739 2485 1294
739 2485 1469
739 2485 1661
739 2485 1865
739 2485 2083
739 2485 2310
737 2483 2537
727 2559 2832
720 2565 3067
713 2571 3316
705 2577 3590
697 2584 3873
697 2584 3873
891 2739 1156
889 2740 1201
886 2741 1291
809 2744 1344
809 2744 1506
809 2744 1688
809 2744 1886
809 2744 2098
809 2744 2321
809 2744 2546
808 2742 2775
798 2830 3085
791 2835 3332
783 2843 3604
775 2849 3885
775 2849 3885
971 3007 1247
970 3008 1286
966 3009 1365
883 3012 1399
883 3012 1548
883 3012 1720
883 3012 1911
883 3012 2118
883 3012 2335
883 3012 2557
883 3012 2784
883 3012 3020
872 3109 3350
864 3116 3620
856 3124 3899
856 3124 3899
1056 3292 1340
1055 3293 1373
1052 3294 1443
961 3297 1458
961 3297 1596
961 3297 1758
961 3297 1941
961 3297 2141
961 3297 2354
961 3297 2572
961 3297 2795
961 3297 3028
961 3297 3277
950 3407 3639
942 3415 3917
942 3415 3917
1151 3607 1437
1149 3607 1467
1147 3608 1528
1055 3612 1532
1047 3612 1652
1047 3612 1804
1047 3612 1978
1047 3612 2172
1047 3612 2379
1047 3612 2591
1047 3612 2811
1047 3612 3040
1047 3612 3285
1047 3612 3557
1037 3735 3938
1037 3735 3938
1249 3932 1536
1248 3933 1562
1246 3933 1616
1162 3937 1620
1137 3938 1713
1137 3938 1856
1137 3938 2023
1137 3938 2208
1137 3938 2409
1137 3938 2616
1137 3938 2830
1137 3938 3056
1137 3938 3297
1137 3938 3566
1137 3938 3845
1137 3938 3845
1249 3932 1536
1248 3933 1562
1246 3933 1616
1162 3937 1620
1137 3938 1713
1137 3938 1856
1137 3938 2023
1137 3938 2208
1137 3938 2409
1137 3938 2616
1137 3938 2830
1137 3938 3056
1137 3938 3297
1137 3938 3566
1137 3938 3845
1137 3938 3845
634 79 196
634 79 515
626 71 841
584 62 1084
563 55 1341
544 50 1581
524 45 1816
505 39 2051
485 34 2290
466 28 2527
447 23 2765
427 17 3009
405 11 3266
383 5 3548
362 0 3836
362 0 3836
636 329 168
630 371 515
622 363 831
589 353 1081
569 346 1335
549 340 1575
530 335 1808
510 329 2044
491 323 2282
471 317 2519
452 311 2757
432 305 3001
412 299 3258
388 292 3540
365 284 3829
365 284 3829
645 665 252
635 666 521
626 686 832
605 676 1087
586 670 1337
566 664 1574
548 658 1807
529 652 2042
510 646 2280
491 640 2517
472 635 2755
453 629 3000
432 622 3257
410 616 3539
387 608 3829
387 608 3829
649 956 371
642 956 581
641 966 850
638 975 1110
630 981 1352
624 987 1585
617 994 1815
610 1001 2048
603 1007 2285
596 1014 2520
589 1019 2757
582 1026 3001
575 1032 3258
566 1038 3539
558 1045 3828
558 1045 3828
701 1242 501
691 1237 661
683 1238 892
675 1240 1138
659 1236 1361
652 1252 1600
645 1258 1826
638 1263 2058
631 1269 2293
625 1274 2527
618 1279 2764
610 1284 3006
603 1289 3262
595 1294 3543
586 1301 3831
586 1301 3831
736 1486 627
729 1483 751
723 1485 947
715 1487 1170
693 1488 1375
689 1484 1599
682 1509 1842
675 1514 2071
668 1519 2304
661 1524 2537
654 1529 2772
647 1533 3014
640 1537 3268
631 1543 3548
623 1548 3836
623 1548 3836
780 1726 748
776 1726 845
771 1727 1010
763 1729 1210
731 1730 1392
731 1730 1611
727 1726 1831
719 1762 2087
713 1766 2318
706 1771 2549
699 1776 2782
692 1780 3023
684 1785 3277
676 1790 3555
668 1795 3842
668 1795 3842
832 1971 862
830 1972 939
825 1973 1077
819 1975 1258
776 1977 1414
776 1977 1625
776 1977 1843
773 1973 2067
765 2019 2336
758 2024 2564
751 2029 2795
744 2034 3034
736 2040 3287
729 2045 3564
720 2051 3850
720 2051 3850
891 2223 968
889 2224 1030
885 2225 1149
879 2227 1310
