hdri/carlut.3DL
#Created by: Adobe Photoshop Export Color Lookup Plugin
#Description: lutkawmi.psd
0 205 409 614 818 1023
0 0 0
0 61 1032
0 127 1750
0 191 2441
0 252 3158
0 298 3711
98 979 282
70 976 1078
46 1026 1825
25 1046 2533
2 1064 3271
0 1084 3827
373 1735 729
322 1737 1153
319 1733 1819
297 1797 2557
275 1811 3286
258 1822 3852
666 2485 1060
590 2488 1286
590 2488 1860
588 2486 2533
564 2581 3319
548 2595 3876
955 3295 1339
858 3299 1452
858 3299 1936
858 3299 2567
858 3299 3273
838 3422 3919
1168 3935 1536
1055 3939 1590
1055 3939 2018
1055 3939 2612
1055 3939 3294
1055 3939 3842
634 79 196
584 62 1084
524 45 1816
466 28 2527
405 11 3266
362 0 3836
649 956 371
638 975 1110
617 994 1815
596 1014 2520
575 1032 3258
558 1045 3828
780 1726 748
763 1729 1210
727 1726 1831
706 1771 2549
684 1785 3277
668 1795 3842
952 2478 1065
942 2481 1364
881 2483 1872
879 2481 2542
856 2561 3313
839 2575 3870
1161 3290 1341
1154 3292 1549
1068 3295 1946
1068 3295 2576
1068 3295 3280
1049 3407 3915
1336 3930 1536
1330 3932 1704
1225 3936 2027
1225 3936 2620
1225 3936 3301
1225 3936 3848
1363 328 533
1363 328 1195
1285 310 1828
1228 292 2531
1170 274 3267
1125 260 3836
1370 959 573
1357 1010 1183
1305 991 1821
1249 971 2519
1191 950 3252
1146 934 3820
1399 1697 842
1386 1701 1236
1379 1725 1862
1359 1739 2542
1338 1753 3266
1321 1764 3830
1531 2485 1110
1510 2476 1380
1483 2478 1933
1448 2476 2565
1426 2527 3305
1409 2540 3860
1657 3291 1366
1641 3285 1559
1619 3288 2035
1556 3291 2598
1556 3290 3300
1537 3374 3907
1781 3929 1553
1768 3925 1711
1749 3928 2136
1661 3931 2641
1661 3931 3319
1661 3931 3865
2101 584 831
2101 584 1285
2101 584 1940
1988 567 2546
1928 547 3275
1880 532 3841
2104 988 785
2097 1073 1281
2097 1073 1920
2006 1055 2541
1946 1034 3267
1898 1018 3831
2132 1690 972
2123 1695 1299
2112 1746 1916
2056 1728 2552
1996 1707 3269
1950 1690 3829
2179 2433 1197
2172 2439 1440
2157 2451 1950
2150 2478 2600
2130 2495 3301
2114 2508 3852
2360 3307 1422
2343 3302 1604
2304 3289 2050
2266 3287 2665
2227 3287 3327
2211 3337 3900
2462 3942 1598
2449 3938 1749
2413 3927 2150
2376 3924 2730
2308 3926 3346
2308 3926 3888
2979 802 1069
2979 802 1398
2979 802 1992
2979 802 2685
2817 789 3294
2767 773 3854
2980 1044 977
2977 1159 1398
2977 1159 1979
2977 1159 2667
2837 1147 3290
2786 1130 3849
3004 1685 1106
2997 1690 1372
2988 1773 1977
2988 1773 2648
2887 1761 3293
2837 1745 3848
3050 2418 1293
3045 2424 1505
3032 2437 1986
3020 2493 2648
2963 2481 3313
2914 2465 3859
3120 3231 1507
3115 3235 1675
3102 3247 2100
3086 3262 2685
3075 3287 3359
3060 3301 3893
3329 3962 1664
3315 3958 1807
3278 3947 2194
3226 3931 2749
3174 3921 3403
3140 3922 3915
3735 945 1227
3735 945 1494
3735 945 2043
3735 945 2717
3735 946 3447
3539 940 3871
3736 1100 1111
3735 1236 1495
3735 1236 2034
3735 1236 2703
3735 1236 3430
3558 1230 3867
3756 1691 1211
3750 1695 1438
3743 1804 2034
3743 1804 2687
3743 1804 3405
3607 1799 3868
3796 2406 1369
3792 2411 1559
3780 2423 2014
3769 2507 2687
3769 2507 3389
3679 2503 3879
3860 3211 1564
3856 3216 1721
3845 3228 2130
3831 3244 2702
3816 3293 3391
3776 3290 3905
3925 3859 1730
3922 3864 1866
3912 3875 2240
3898 3890 2783
3881 3906 3420
3869 3921 3938
